X: 358
T: 359. Allein zu dir, Herr Jesu Christ
N: Derived from chor359.krn
C: Johann Sebastian Bach
%%abc-version 2.0
%%abcx-abcm2ps-target-version 5.9.1 (29 Sep 2008)
%%abc-creator hum2abc beta
%%abcx-conversion-date 2019/03/11 17:28:19
%%abc-edited-by Craig Stuart Sapp
%%humdrum-veritas 3832497256
%%humdrum-veritas-data 993857808
%%
%%barnumbers 0
L: 1/4
M: C
%%staves [1 2 3 4]
V: 1 clef=treble
V: 2 clef=treble
V: 3 clef=treble-8
V: 4 clef=bass
K: D
[V:1] d [I:setbarnb 1]| 
[V:2] F/G/ | 
[V:3] A | 
[V:4] D,/E,/ | 
[V:1] AB/c/ d/e/f | 
[V:2] AGA^A/B/ | 
[V:3] dddd | 
[V:4] F,G,F,3/^G,/ | 
[V:1] ed2c | 
[V:2] cFEE | 
[V:3] cd/c/BA | 
[V:4] ^A,B,/=A,/^G,A, | 
[V:1] !fermata!d2zf | 
[V:2] !fermata!F2xA | 
[V:3] !fermata!A2xd | 
[V:4] !fermata!D,2zD | 
[V:1] edc/B/A | 
[V:2] A/G/FGF | 
[V:3] cde/d/c | 
[V:4] A,B,E,F,- | 
[V:1] Bc/d/e2- | 
[V:2] G3F/^G/ | 
[V:3] de^A/B/c- | 
[V:4] F,E,/D,/ C,/B,,/ ^A,,/C,/ | 
[V:1] edc2 | 
[V:2] ^AB/=A/GF/E/ | 
[V:3] cB2^A | 
[V:4] F,G,/F,/E,F, | 
[V:1] !fermata!B2z :|]  
[V:2] !fermata!D2x :|]  
[V:3] !fermata!B2x :|]  
[V:4] !fermata!B,,2z :|]  
[V:1] f [I:setbarnb 8]| 
[V:2] B | 
[V:3] d | 
[V:4] B, | 
[V:1] gefd | 
[V:2] BAAG | 
[V:3] d/B/cc/A/B | 
[V:4] E,A,D,G,/F,/ | 
[V:1] ef!fermata!Bf | 
[V:2] GF!fermata!FB | 
[V:3] Bc!fermata!df | 
[V:4] E,^A,,!fermata!B,,D | 
[V:1] gefd | 
[V:2] BAAG/F/ | 
[V:3] eedd/c/ | 
[V:4] DCCB,/A,/ | 
[V:1] ef!fermata!B2 | 
[V:2] EA!fermata!G2 | 
[V:3] BB!fermata!B2 | 
[V:4] G,/F,/ E,/^D,/!fermata!E,2 | 
[V:1] zdcB | 
[V:2] xF^EF/^G/ | 
[V:3] xBB/A^G/ | 
[V:4] zB,,C,^D,/^E,/ | 
[V:1] ABGG | 
[V:2] CFFE | 
[V:3] FF=G/A/ B/c/ | 
[V:4] F,^D,=E,/F,/ G,/A,/ | 
[V:1] !fermata!Fz2B | 
[V:2] !fermata!^Dx2E- | 
[V:3] !fermata!^dx2B/c//d// | 
[V:4] !fermata!B,z2G,- | 
[V:1] Ad2c | 
[V:2] EA2G | 
[V:3] cd/e/fe | 
[V:4] G,F,/G,/A,A,, | 
[V:1] !fermata!dz2A | 
[V:2] !fermata!Fx2F | 
[V:3] !fermata!dx2d | 
[V:4] !fermata!D,z2D, | 
[V:1] Bcd/e/f- | 
[V:2] EEDd/c/ | 
[V:3] ^G^AB/c/d- | 
[V:4] DCB,3/A,/ | 
[V:1] feed | 
[V:2] B/^A/ B/c/AB/=A/ | 
[V:3] dc2B- | 
[V:4] =G,/F,/ G,/E,/F,G,/F,/ | 
[V:1] cc!fermata!B2 |]  
[V:2] GF/E/!fermata!^D2 |]  
[V:3] B^A!fermata!B2 |]  
[V:4] E,F,!fermata!B,,2 |]  



